X:29
T:Gallopede
R:reel
M:4/4
Z:Transcribed to abc by Mary Lou Knack
K:G
dc | B2Bc A2AB | GAGF G2AB | cBcd edcB | A2AB A2dc |
B2Bc A2AB | GAGF G2AB | cBAG FGAF | G2D2 G2 ::
Bc | d2gf e2ed | dcBc A2dc | B2gd edcB | A2AB A2dc |
B2gf e2ed | dcBc A2dc | BdcB AcBA | G2D2 G2  ::
Bc | d2d2 d2g2 | d2d2 d2g2 | d2d2 edcB | A2A2 A2Bc |
d2d2 d2g2 | d2d2 d2g2 | edcB dcBA | G2D2 G2 :|
